Sources/FrostedUI/Resources/Icons.xcassets/play32.imageset/play-32.svg

<svg width="32" height="32" viewBox="0 0 32 32" fill="none" xmlns="http://www.w3.org/2000/svg" data-fui-icon="true">
  <path
    d="M6.91699 6.23535C6.91711 3.52777 9.91619 1.89637 12.1895 3.36719L27.2812 13.1318C29.3616 14.4783 29.3619 17.5229 27.2812 18.8691L12.1895 28.6338C9.91633 30.1044 6.91747 28.4729 6.91699 25.7656V6.23535ZM11.375 4.62598C10.0998 3.80091 8.41711 4.7165 8.41699 6.23535V25.7656C8.41747 27.2841 10.0999 28.1999 11.375 27.375L26.4658 17.6094C27.6329 16.8542 27.6327 15.147 26.4658 14.3916L11.375 4.62598Z"
    fill="currentColor"
  />
</svg>

<svg xmlns="http://www.w3.org/2000/svg" width="32" height="32" fill="none" data-fui-icon="true" viewBox="0 0 32 32"><path fill="currentColor" d="M6.917 6.235c0-2.707 3-4.339 5.273-2.868l15.091 9.765c2.08 1.346 2.08 4.39 0 5.737L12.19 28.634c-2.274 1.47-5.273-.161-5.273-2.868zm4.458-1.609c-1.275-.825-2.958.09-2.958 1.61v19.53c0 1.518 1.683 2.434 2.958 1.609l15.09-9.766a1.916 1.916 0 0 0 0-3.217z"/></svg>
